icons/trash-outline.svg

<svg xmlns="http://www.w3.org/2000/svg" width="24" height="24" viewBox="0 0 24 24">
    <path fill="#3A3A47" fill-rule="evenodd" d="M11 2h2c1.333 0 2 .667 2 2h3c1.333 0 2 .667 2 2v2c0 .942-.333 1.55-1 1.828V20c0 1.333-.667 2-2 2H7c-1.336 0-2.003-.667-2-2L4.999 9.828C4.333 9.552 4 8.942 4 8V6c0-1.333.666-2 1.999-2H9c0-1.333.667-2 2-2zm6 8H7v10h10V10zm-7 2c.667-.01 1 .324 1 1v4c0 .667-.333 1-1 1s-1-.333-1-1v-4c0-.657.333-.99 1-1zm4 0c.667-.01 1 .324 1 1v4c0 .667-.333 1-1 1s-1-.333-1-1v-4c0-.657.333-.99 1-1zm4-6H6v2h12V6z"/>
</svg>

<svg width="24" height="24" viewBox="0 0 24 24" fill="none" xmlns="http://www.w3.org/2000/svg">
<path fill-rule="evenodd" clip-rule="evenodd" d="M9 4C9 2.667 9.667 2 11 2H13C14.333 2 15 2.667 15 4H18C19.333 4 20 4.667 20 6V8C20 8.942 19.667 9.551 19 9.828V20C19 21.333 18.333 22 17 22H7C5.664 22 4.997 21.333 5 20V9.828C4.333 9.552 4 8.943 4 8V6C4 4.667 4.666 4 5.999 4H9ZM7 10V20H17V10H7ZM6 6V8H18V6H6ZM9 13C9 12.343 9.333 12.01 10 12C10.667 11.99 11 12.324 11 13V17C11 17.667 10.667 18 10 18C9.333 18 9 17.667 9 17V13ZM13 13C13 12.343 13.333 12.01 14 12C14.667 11.99 15 12.324 15 13V17C15 17.667 14.667 18 14 18C13.333 18 13 17.667 13 17V13Z" fill="#3A3A47"/>
</svg>
